X: 4082
T: Blissful, The
R: jig
M: 6/8
K: Gmajor
|:BAG cBA|B3 cBA|Bcd efg|f3 ded|
d^cd ed=c|d^cd efg|f3 efe|1 ded cdc:|2 ded def||
|:g2e efg|f2d def|e2c cde|ded B3|
c2A ABc|d2B Bcd|f3 ede|1 ded def:|2 ded cdc|
BAG cBA|G3 G3||

